X:208
T:Apollo. VWMLa.208, The
%%VWML:Anon2-3049-p130-0
F:http://www.vwml.org/record/Anon2/3049/p130
S:Anon. MS, late 18thC, Vaughan Williams Mem. Library
O:England;Yorkshire
Z:vmp/efdss.Simon Wilson. Reviewed PJH 2008.
M:2/4
L:1/8
Q:1/4=120
K:Bb
B|FFFD|FBBA|GccB|A2FB|\
FFFD|FBBA|G(e/d/) cf|d2B:|
|:f|gg ag/a/|bBBB|gg {b}ag/a/|bf/d/ Bb/a/|\
g/f/e/d/ c/b/a/g/|f/e/d/c/ BF|\
GG A/B/c/A/|B2B,2:|
T:Content. VWMLa.209
R:Country-dance
S:Anon. MS, late 18thC, Vaughan Williams Mem. Library
O:England;Yorkshire
Z:vmp/efdss.Simon Wilson. Reviewed PJH 2008.
M:2/4
L:1/8
Q:1/4=120
K:D
A/B/A/G/ FA|d3f|e>f g/f/e/d/|cee2|\
A/B/A/G/ FA|d3f|ec e/d/c/B/|A2A,2:|
|:(a/b/).a/.g/ (f/d/B)|(g/a/).g/.f/ (e/c/A)|\
(f/g/).a/.f/ (e/f/).g/.e/|d/f/e/d/ d/c/B/A/|\
B/c/d/B/ A/F/D|B/c/d/B/ Aa/g/|fa/f/ ea/g/|fdd2:|
